X:15
T:Daniel O'Connell
C:Trad.
D:"Cooley", track 3
R:jig
M:6/8
K:D
Bc|:d2D FED|AdA AFD|GBG FAF|EFG ABc|
dDD FED|AdA AFD|(3G-BBG FAF|EFE DFA|
dDD FED|AdA AFD|(3G-BBG (3F-AAF|EFG ABc|
dDD FED|AdA AFD|GBG FAF|EFE D2A|
|ABc dcd|efe edB|AFA ede|fdd d2A|
ABc (3dcdA|BdB AFD|GBG FAF|EFE D2A|
ABc dcd|e^de edB|AFA ede|fdd d2A|
ABc (3dcdA|BdB (3AFDF|G3 FAF|EFG ABc:|
